X:1
T:Title
%%score { ( 1 4 ) | ( 2 3 ) }
L:1/8
M:4/4
K:F
V:1 treble nm="Grand Piano"
V:4 treble 
V:2 bass 
V:3 bass 
V:1
 z4 z2[Q:1/4=100] C>F | A>_A =A>[Ac] [Ad]2 [Ac]2 | A2 (3fff f2 (3AGF | %3
 z2 (3[EBce][EBce][EBce] [EBce]2 (3BAG | A2 (3[Acf][Acf][Acf] [Acf]2 C>F | %5
 A>_A =A>[Ac] [Ad]2 [Ac]2 | A2 (3fff f2 (3A_A=A | [EAc]2 [EAc]2 [D_A=B]2 [DAB]2 | %8
 z2 (3aaa a2 (3ccc | [Ec]2 [Ec]2 [Fc]2 [^Fc]2 |[M:11/8] [Gc]-[Gc]-[Gc]-[Gc]-[Gc]-[Gc]- [Gc]3 z2 | %11
[M:4/4] C2 F>G A2 c2 | d4 A4 | [Ec]2 [EB]>[EA] [EG]2 [Bc]2 | f2 e2 d2 c2 | C2 F>G A2 c2 | %16
 [Ae]4 [Ac]4 | [_Ad]2 [Ad]>[Ad] c2 =B2 | A4 [Ec]4 | C2 F>G A2 c2 | d4 A4 | %21
 [Ec]2 [EB]>[EA] [EG]2 [Bc]2 | f2 e2 d2 c2 | [Af]2 [Af]>[Af] [Ac]2 [G^c]2 | %24
 [Fe]2 [Fd]2 [DB]2 [DG]2 | [Fc]2 [F=B]>[Fc] [Ed]2 [Ec]2 |[M:3/4] [A,CF]6 |] %27
V:2
 z4 z2 [F,A,]>[F,A,C] | [F,CF]>[F,=B,F] [F,CF]>[F,C] [F,C]2 [F,C]2 | z2 (3[Ac][Ac][Ac] [Ac]2 z2 | %3
 z2[K:bass] (3[C,C][C,C][C,C] [C,C]2 z2 | z2 (3[F,CF][F,CF][F,CF] [F,CF]2 [F,A,]>[F,A,C] | %5
 [F,CF]>[F,=B,F] [F,CF]>[F,C] [F,C]2 [F,C]2 | z2 (3[Ac][Ac][Ac] [Ac]2[K:bass] (3A,_A,=A, | %7
 E,2 E,2 E,2 E,2 | z2 (3[ce][ce][ce] [ce]2 (3CCC | [C,G,]2 [C,G,]2 [C,_A,]2 [C,=A,]2 | %10
[M:11/8] [C,B,]-[C,B,]-[C,B,]-[C,B,]-[C,B,]-[C,B,]- [C,B,]3 z2 | %11
[M:4/4] [F,A,]2 [F,A,C]>[F,B,C] [F,CF]2 [F,A,F]2 | [F,A,F]4 [F,CF]4 | %13
 [C,C]2 [C,C]>[C,C] [C,C]2 [C,C]2 | [F,C]6 z2 | [F,A,]2 [F,A,C]>[F,B,C] [F,CF]2 [F,A,F]2 | %16
 [E,C]4 [E,E]4 | [E,=B,]2 [E,B,]>[E,B,] [E,A,E]2 [E,_A,D]2 | [A,C]4 [C,B,]4 | %19
 [F,A,]2 [F,A,C]>[F,B,C] [F,CF]2 [F,A,F]2 | [F,A,F]4 [F,CF]4 | [C,C]2 [C,C]>[C,C] [C,C]2 [C,C]2 | %22
 [F,C]6 z2 | [F,C]2 [F,C]>[F,C] [F,C]2 [E,A,]2 | [D,A,]2 [D,A,]2 [B,,B,]2 [B,,B,]2 | %25
 [C,A,]2 [C,_A,]>[C,=A,] [C,B,]2 [C,B,]2 |[M:3/4] [F,,F,]6 |] %27
V:3
 x8 | x8 | [F,CF]6 z2 | x2[K:bass] x6 | x8 | x8 | [F,CF]6[K:bass] z2 | x8 | [A,C]6 z2 | x8 | %10
[M:11/8] x11 |[M:4/4] x8 | x8 | x8 | x8 | x8 | x8 | x8 | x8 | x8 | x8 | x8 | x8 | x8 | x8 | x8 | %26
[M:3/4] x6 |] %27
V:4
 x8 | x8 | x8 | G6 z2 | x8 | x8 | x8 | x8 | A6 z2 | x8 |[M:11/8] x11 |[M:4/4] x8 | x8 | x8 | %14
 [Ac]6 z2 | x8 | x8 | x8 | x8 | x8 | x8 | x8 | [Ac]6 z2 | x8 | x8 | x8 |[M:3/4] x6 |] %27

